X:1
T:Title
%%score { 1 | ( 2 3 ) }
L:1/8
M:3/4
K:Bb
V:1 treble nm="Grand Piano"
V:2 bass 
V:3 bass 
V:1
 z2 z2[Q:1/4=100] [DF]>[DF] | [Fd]3 [Fd] cB | G2 B2 [B,GB][Gc] | d3 B d>c |[M:2/4] [DB]4 | %5
[M:1/4] F>F |[M:3/4] c3 c BA | [DFB]2 [DF]2 F>F | c3 c Bc |[M:2/4] d4 |[M:1/4] [DF]>[DF] | %11
[M:3/4] [Fd]3 [Fd] cB | G2 B2 [B,GB][Gc] | d3 B d>c |[M:6/4] .[DB]6 z6 |] %15
V:2
 z2 z2 [B,,B,]>[B,,B,] | [B,,B,]3 [B,,B,] [F,A,E][G,B,D] | E2 z2 z2 | %3
 [F,B,F]3 [F,B,D] [F,A,F]>[F,A,E] |[M:2/4] [B,,B,]4 |[M:1/4] [F,A,]>[F,A,] | %6
[M:3/4] [F,EF]3 [F,EF] [F,DF][F,CF] | z2 B,2 [F,A,]>[F,A,] | [F,A,F]3 [F,A,F] [F,G,F][F,A,F] | %9
[M:2/4] [B,F]4 |[M:1/4][K:bass] [B,,B,]>[B,,B,] |[M:3/4] [B,,B,]3 [B,,B,] [F,A,E][G,B,D] | %12
 E2 G2 E,[E,B,] | [F,B,F]3 [F,B,D] [F,A,F]>[F,A,E] |[M:6/4] .[B,,B,]6 z6 |] %15
V:3
 x6 | x6 | [E,B,]2- [E,B,G]2 E,[E,B,] | x6 |[M:2/4] x4 |[M:1/4] x2 |[M:3/4] x6 | B,,4 z2 | x6 | %9
[M:2/4] x4 |[M:1/4][K:bass] x2 |[M:3/4] x6 | [E,B,]4 z2 | x6 |[M:6/4] x12 |] %15

